images/logos/bootstrap.svg

<?xml version="1.0" encoding="UTF-8"?>
<!DOCTYPE svg  PUBLIC '-//W3C//DTD SVG 1.1//EN'  'http://www.w3.org/Graphics/SVG/1.1/DTD/svg11.dtd'>
<svg width="852pt" height="852pt" version="1.1" viewBox="0 0 852 852" xmlns="http://www.w3.org/2000/svg">
<g>
<path d="m134.98 0h581.22l0.07 0.98c-193.38 0.03-386.78 0.04-580.16 0l-1.13-0.98z" opacity=".63"/>
<path d="m0 136.29l0.93-0.87c0.16 193.94 0.05 387.88 0.06 581.81l-0.99-0.27v-580.67z" opacity=".63"/>
</g>
<g>
<path d="m57.22 29.25c22.61-17.06 50.49-27.54 78.89-28.27 193.38 0.04 386.78 0.03 580.16 0 32.93 1.23 64.99 15.25 89.03 37.66 23.02 21.29 38.75 50.37 43.62 81.37 1.54 9.26 1.9 18.66 1.75 28.03v549.93c0.14 12.22 0.07 24.53-2.3 36.57-5.73 31.57-22.73 60.86-47.06 81.73-23.31 20.22-53.38 32.53-84.22 34.18-12.68 0.47-25.38 0.1-38.07 0.22h-522c-10.4-0.08-20.83 0.38-31.17-0.94-31.47-3.6-61.44-18.33-83.72-40.8-24.23-24.2-39.52-57.42-41.14-91.7-0.01-193.93 0.1-387.87-0.06-581.81 1.49-41.48 23.17-81.36 56.29-106.17m174.31 156.31c0.12 165.25 0.02 330.51 0.06 495.77 70.8 0.01 141.6 0 212.4 0 19.39 0.11 38.84-0.02 58.11-2.52 23.59-2.84 46.85-9.13 68.27-19.5 25.98-12.36 48.89-32.87 60.21-59.71 7.82-18.12 11.47-37.93 11.25-57.63-0.04-20.69-3.21-41.59-11.21-60.76-6.57-15.73-16.35-30.32-29.43-41.36-14.74-12.62-33.09-20.42-51.94-24.47-0.14-0.32-0.41-0.98-0.54-1.31 6.01-3.04 12.25-5.75 17.97-9.37 16.54-9.98 30.79-24.02 40.02-41.06 8.76-16.06 12.63-34.44 12.92-52.64 0.29-19.99-2.52-40.38-10.97-58.65-6.68-14.61-17.19-27.39-30.08-36.95-17.96-13.52-39.42-21.78-61.39-25.97-26.38-5.33-53.4-3.78-80.14-4.01-68.5 0.09-137.02-0.19-205.51 0.14z"/>
<path d="m318.25 256.18c40.59-0.04 81.18 0 121.77-0.02 18.34 0.09 37.21-1.06 54.85 4.98 10.97 3.69 21.63 10.04 27.95 20.01 8.26 12.95 10.1 28.78 10.1 43.82 0.04 16.26-4.35 33.24-15.6 45.42-14.25 15.43-35.6 22.73-56.28 22.69-47.6-0.06-95.21 0.14-142.8-0.1 0.02-45.6 0.01-91.2 0.01-136.8z"/>
<path d="m318.41 458.99c-0.05-1.16 0-2.31 0.14-3.45 44.82 0.1 89.64 0.01 134.45 0.04 17.9 0.02 36.25-0.83 53.51 4.78 16.74 5.06 31.98 16.28 40.08 32 8.52 16.4 9.9 35.6 7.83 53.7-1.98 16.7-9.09 33.19-21.82 44.49-15.17 14.15-36.44 19.38-56.69 19.82-52.44 0.16-104.89-0.09-157.33 0.13-0.39-50.49-0.04-101.01-0.17-151.51z"/>
</g>
</svg>

<?xml version="1.0" encoding="UTF-8" ?>
<!DOCTYPE svg PUBLIC "-//W3C//DTD SVG 1.1//EN" "http://www.w3.org/Graphics/SVG/1.1/DTD/svg11.dtd">
<svg width="852pt" height="852pt" viewBox="0 0 852 852" version="1.1" xmlns="http://www.w3.org/2000/svg">
<g id="#000000a0">
<path fill="#000000" opacity="0.63" d=" M 134.98 0.00 L 716.20 0.00 L 716.27 0.98 C 522.89 1.01 329.49 1.02 136.11 0.98 L 134.98 0.00 Z" />
<path fill="#000000" opacity="0.63" d=" M 0.00 136.29 L 0.93 135.42 C 1.09 329.36 0.98 523.30 0.99 717.23 L 0.00 716.96 L 0.00 136.29 Z" />
</g>
<g id="#000000ff">
<path fill="#000000" opacity="1.00" d=" M 57.22 29.25 C 79.83 12.19 107.71 1.71 136.11 0.98 C 329.49 1.02 522.89 1.01 716.27 0.98 C 749.20 2.21 781.26 16.23 805.30 38.64 C 828.32 59.93 844.05 89.01 848.92 120.01 C 850.46 129.27 850.82 138.67 850.67 148.04 C 850.67 331.35 850.67 514.66 850.67 697.97 C 850.81 710.19 850.74 722.50 848.37 734.54 C 842.64 766.11 825.64 795.40 801.31 816.27 C 778.00 836.49 747.93 848.80 717.09 850.45 C 704.41 850.92 691.71 850.55 679.02 850.67 C 505.02 850.67 331.02 850.67 157.02 850.67 C 146.62 850.59 136.19 851.05 125.85 849.73 C 94.38 846.13 64.41 831.40 42.13 808.93 C 17.90 784.73 2.61 751.51 0.99 717.23 C 0.98 523.30 1.09 329.36 0.93 135.42 C 2.42 93.94 24.10 54.06 57.22 29.25 M 231.53 185.56 C 231.65 350.81 231.55 516.07 231.59 681.33 C 302.39 681.34 373.19 681.33 443.99 681.33 C 463.38 681.44 482.83 681.31 502.10 678.81 C 525.69 675.97 548.95 669.68 570.37 659.31 C 596.35 646.95 619.26 626.44 630.58 599.60 C 638.40 581.48 642.05 561.67 641.83 541.97 C 641.79 521.28 638.62 500.38 630.62 481.21 C 624.05 465.48 614.27 450.89 601.19 439.85 C 586.45 427.23 568.10 419.43 549.25 415.38 C 549.11 415.06 548.84 414.40 548.71 414.07 C 554.72 411.03 560.96 408.32 566.68 404.70 C 583.22 394.72 597.47 380.68 606.70 363.64 C 615.46 347.58 619.33 329.20 619.62 311.00 C 619.91 291.01 617.10 270.62 608.65 252.35 C 601.97 237.74 591.46 224.96 578.57 215.40 C 560.61 201.88 539.15 193.62 517.18 189.43 C 490.80 184.10 463.78 185.65 437.04 185.42 C 368.54 185.51 300.02 185.23 231.53 185.56 Z" />
<path fill="#000000" opacity="1.00" d=" M 318.25 256.18 C 358.84 256.14 399.43 256.18 440.02 256.16 C 458.36 256.25 477.23 255.10 494.87 261.14 C 505.84 264.83 516.50 271.18 522.82 281.15 C 531.08 294.10 532.92 309.93 532.92 324.97 C 532.96 341.23 528.57 358.21 517.32 370.39 C 503.07 385.82 481.72 393.12 461.04 393.08 C 413.44 393.02 365.83 393.22 318.24 392.98 C 318.26 347.38 318.25 301.78 318.25 256.18 Z" />
<path fill="#000000" opacity="1.00" d=" M 318.41 458.99 C 318.36 457.83 318.41 456.68 318.55 455.54 C 363.37 455.64 408.19 455.55 453.00 455.58 C 470.90 455.60 489.25 454.75 506.51 460.36 C 523.25 465.42 538.49 476.64 546.59 492.36 C 555.11 508.76 556.49 527.96 554.42 546.06 C 552.44 562.76 545.33 579.25 532.60 590.55 C 517.43 604.70 496.16 609.93 475.91 610.37 C 423.47 610.53 371.02 610.28 318.58 610.50 C 318.19 560.01 318.54 509.49 318.41 458.99 Z" />
</g>
</svg>
